OFDR/img/documents/excavator.svg

<svg width="66" height="66" viewBox="0 0 66 66" fill="none" xmlns="http://www.w3.org/2000/svg">
<g id="excavator">
<path id="Shape" fill-rule="evenodd" clip-rule="evenodd" d="M34.2754 22H38.9289C39.5201 22 40 22.4848 40 23.0831V33.9169C40 34.5152 39.5201 35 38.9289 35H26.0715C25.4803 35 25 34.5152 25 33.9169V31.3782C25.0004 31.0913 25.113 30.8156 25.3143 30.6124L33.5182 22.3174C33.7187 22.1139 33.9914 22 34.2754 22ZM27.1431 32.8334H37.8569V24.1666H34.7192L27.1431 31.8273V32.8334Z" fill="#86ADEF"/>
<path id="Shape_2" fill-rule="evenodd" clip-rule="evenodd" d="M33 57.5C33 55.0146 35.0146 53 37.5002 53C39.9854 53 42 55.0146 42 57.5C42 59.9854 39.9854 62 37.5002 62C35.0146 62 33 59.9854 33 57.5ZM35.2499 57.5C35.2499 58.7425 36.2576 59.7498 37.5002 59.7498C38.7428 59.7498 39.7501 58.7425 39.7501 57.5C39.7501 56.2575 38.7428 55.2502 37.5002 55.2502C36.2576 55.2502 35.2499 56.2575 35.2499 57.5Z" fill="#86ADEF"/>
<path id="Shape_3" fill-rule="evenodd" clip-rule="evenodd" d="M47 57.5C47 55.0146 49.0146 53 51.4998 53C53.9854 53 56 55.0146 56 57.5C56 59.9854 53.9854 62 51.4998 62C49.0146 62 47 59.9854 47 57.5ZM49.2499 57.5C49.2499 58.7425 50.2572 59.7498 51.4998 59.7498C52.7428 59.7498 53.7497 58.7425 53.7497 57.5C53.7497 56.2575 52.7428 55.2502 51.4998 55.2502C50.2572 55.2502 49.2499 56.2575 49.2499 57.5Z" fill="#86ADEF"/>
<path id="Shape_4" fill-rule="evenodd" clip-rule="evenodd" d="M21 57.5C21 55.0146 23.0146 53 25.5 53C27.9854 53 30 55.0146 30 57.5C30 59.9854 27.9854 62 25.5 62C23.0146 62 21 59.9854 21 57.5ZM23.2502 57.5C23.2502 58.7425 24.2575 59.7498 25.5 59.7498C26.7425 59.7498 27.7498 58.7425 27.7498 57.5C27.7498 56.2575 26.7425 55.2502 25.5 55.2502C24.2575 55.2502 23.2502 56.2575 23.2502 57.5Z" fill="#86ADEF"/>
<path id="Shape_5" fill-rule="evenodd" clip-rule="evenodd" d="M64.8999 46.2C65.5077 46.2 66 45.7073 66 45.1003V34.1001C66 33.4923 65.5077 33 64.8999 33H43.9997V18.6999C43.9997 18.0928 43.5075 17.5997 42.9 17.5997H31.8999C31.6082 17.6001 31.3286 17.7162 31.1224 17.9224L28.6003 20.4445L8.4776 0.322266C8.27175 0.116418 7.99178 0 7.70013 0H1.10013C0.492261 0 0 0.492261 0 1.10013V38.5003C0 38.8676 0.183691 39.2113 0.489441 39.4151L10.3894 46.0155C10.895 46.3523 11.5778 46.2161 11.9154 45.7102C11.9851 45.6054 12.0366 45.4898 12.0668 45.3673L15.3672 32.1669L16.4674 27.7672C16.6108 27.1771 16.2482 26.5821 15.6581 26.4387C15.0736 26.2965 14.4834 26.6506 14.3332 27.2323L13.4421 30.8001H5.68154L8.45706 12.7412L22.3805 26.6639L20.1223 28.9225C19.916 29.1284 19.8 29.4083 19.7996 29.7V43.9997H18.6999C18.092 43.9997 17.5997 44.4924 17.5997 45.1003V50.688C13.3958 51.3285 10.5063 55.2557 11.1468 59.4596C11.7164 63.1987 14.9173 65.971 18.6999 66H58.2999C62.5522 65.9674 65.9734 62.4933 65.9404 58.2411C65.9114 54.4585 63.1395 51.2572 59.4 50.688V46.2H64.8999ZM63.8001 35.1999V43.9997H43.9997V35.1999H63.8001ZM2.19987 37.9113L10.3117 43.3189L12.891 33H2.19987V37.9113ZM8.4776 9.65024C8.0506 9.21841 7.3541 9.21438 6.92227 9.64178C6.75308 9.80896 6.6427 10.0261 6.60806 10.2605L3.4563 30.8001H2.19987V2.19987H7.24453L27.0445 22.0003L23.9359 25.1085L8.4776 9.65024ZM24.7137 27.4413L22.0003 30.1556V43.9997H41.7999V19.8H32.3555L29.3777 22.7777L24.7137 27.4413ZM63.8001 58.2999C63.7965 61.336 61.336 63.7965 58.2999 63.8001H18.6999C15.6625 63.8001 13.2 61.3376 13.2 58.2999C13.2 55.2625 15.6625 52.8 18.6999 52.8H58.2999C61.336 52.8036 63.7965 55.2641 63.8001 58.2999ZM19.8 50.5997H57.2001V46.2H19.8V50.5997Z" fill="#86ADEF"/>
</g>
</svg>

<svg width="66" height="66" fill="none" xmlns="http://www.w3.org/2000/svg"><g fill-rule="evenodd" clip-rule="evenodd" fill="#86ADEF"><path d="M34.275 22h4.654c.591 0 1.071.485 1.071 1.083v10.834c0 .598-.48 1.083-1.071 1.083H26.07A1.078 1.078 0 0125 33.917v-2.539c0-.287.113-.562.314-.766l8.204-8.295c.2-.203.473-.317.757-.317zm-7.132 10.833h10.714v-8.666h-3.138l-7.576 7.66v1.006zM33 57.5a4.5 4.5 0 119 0 4.5 4.5 0 01-9 0zm2.25 0a2.25 2.25 0 104.5 0 2.25 2.25 0 00-4.5 0zm11.75 0a4.5 4.5 0 119 0 4.5 4.5 0 01-9 0zm2.25 0a2.25 2.25 0 104.5 0 2.25 2.25 0 00-4.5 0zM21 57.5a4.5 4.5 0 119 0 4.5 4.5 0 01-9 0zm2.25 0a2.25 2.25 0 104.5 0 2.25 2.25 0 00-4.5 0z"/><path d="M64.9 46.2a1.1 1.1 0 001.1-1.1v-11a1.1 1.1 0 00-1.1-1.1H44V18.7a1.1 1.1 0 00-1.1-1.1h-11c-.292 0-.571.116-.778.322L28.6 20.445 8.478.322A1.1 1.1 0 007.7 0H1.1A1.1 1.1 0 000 1.1v37.4c0 .368.184.711.49.915l9.9 6.6a1.1 1.1 0 001.677-.648l3.3-13.2 1.1-4.4a1.1 1.1 0 00-2.134-.535l-.89 3.568H5.681l2.775-18.059L22.38 26.664l-2.259 2.258a1.1 1.1 0 00-.322.778V44h-1.1a1.1 1.1 0 00-1.1 1.1v5.588A7.7 7.7 0 0018.7 66h39.6a7.7 7.7 0 001.1-15.312V46.2h5.5zm-1.1-11V44H44v-8.8h19.8zM2.2 37.91l8.112 5.408L12.89 33H2.2v4.911zM8.478 9.65a1.1 1.1 0 00-1.87.61L3.456 30.8H2.2V2.2h5.045l19.8 19.8-3.11 3.108L8.479 9.65zm16.236 17.79L22 30.156V44h19.8V19.8h-9.444l-2.978 2.978-4.664 4.663zM63.8 58.3a5.507 5.507 0 01-5.5 5.5H18.7a5.5 5.5 0 010-11h39.6a5.507 5.507 0 015.5 5.5zm-44-7.7h37.4v-4.4H19.8v4.4z"/></g></svg>
